static/img/kroki/2f058bbaa4cc6f147bfeec3bbb3793f2.svg

<?xml version="1.0" encoding="us-ascii" standalone="no"?><svg xmlns="http://www.w3.org/2000/svg" xmlns:xlink="http://www.w3.org/1999/xlink" contentStyleType="text/css" height="374px" preserveAspectRatio="none" style="width:366px;height:374px;" version="1.1" viewBox="0 0 366 374" width="366px" zoomAndPan="magnify"><defs/><g><!--class azure_cosmos_db_account--><g id="elem_azure_cosmos_db_account"><rect codeLine="23" fill="#3D176E" height="39.7891" id="azure_cosmos_db_account" rx="2.5" ry="2.5" style="stroke:#000D19;stroke-width:0.5;" width="261" x="31" y="328.58"/><ellipse cx="46" cy="348.4745" fill="#ADD1B2" rx="11" ry="11" style="stroke:#181818;stroke-width:1.0;"/><path d="M48.9688,354.1152 Q48.3906,354.412 47.75,354.5527 Q47.1094,354.7089 46.4063,354.7089 Q43.9063,354.7089 42.5781,353.0683 Q41.2656,351.412 41.2656,348.287 Q41.2656,345.162 42.5781,343.5058 Q43.9063,341.8495 46.4063,341.8495 Q47.1094,341.8495 47.75,342.0058 Q48.4063,342.162 48.9688,342.4589 L48.9688,345.1777 Q48.3438,344.5995 47.75,344.3339 Q47.1563,344.0527 46.5313,344.0527 Q45.1875,344.0527 44.5,345.1308 Q43.8125,346.1933 43.8125,348.287 Q43.8125,350.3808 44.5,351.4589 Q45.1875,352.5214 46.5313,352.5214 Q47.1563,352.5214 47.75,352.2558 Q48.3438,351.9745 48.9688,351.3964 L48.9688,354.1152 Z " fill="#000000"/><text fill="#D9B8FF" font-family="Helvetica" font-size="17" lengthAdjust="spacing" textLength="219" x="65" y="354.3598">azure_cosmos_db_account</text></g><!--class database--><g id="elem_database"><rect codeLine="26" fill="#3D176E" height="39.7891" id="database" rx="2.5" ry="2.5" style="stroke:#000D19;stroke-width:0.5;" width="117" x="7" y="167.79"/><ellipse cx="22" cy="187.6845" fill="#ADD1B2" rx="11" ry="11" style="stroke:#181818;stroke-width:1.0;"/><path d="M24.9688,193.3252 Q24.3906,193.622 23.75,193.7627 Q23.1094,193.9189 22.4063,193.9189 Q19.9063,193.9189 18.5781,192.2783 Q17.2656,190.622 17.2656,187.497 Q17.2656,184.372 18.5781,182.7158 Q19.9063,181.0595 22.4063,181.0595 Q23.1094,181.0595 23.75,181.2158 Q24.4063,181.372 24.9688,181.6689 L24.9688,184.3877 Q24.3438,183.8095 23.75,183.5439 Q23.1563,183.2627 22.5313,183.2627 Q21.1875,183.2627 20.5,184.3408 Q19.8125,185.4033 19.8125,187.497 Q19.8125,189.5908 20.5,190.6689 Q21.1875,191.7314 22.5313,191.7314 Q23.1563,191.7314 23.75,191.4658 Q24.3438,191.1845 24.9688,190.6064 L24.9688,193.3252 Z " fill="#000000"/><text fill="#D9B8FF" font-family="Helvetica" font-size="17" lengthAdjust="spacing" textLength="75" x="41" y="193.5698">database</text></g><!--class microsoft_resource--><g id="elem_microsoft_resource"><rect codeLine="29" fill="#3D176E" height="39.7891" id="microsoft_resource" rx="2.5" ry="2.5" style="stroke:#000D19;stroke-width:0.5;" width="200" x="159.5" y="167.79"/><ellipse cx="174.5" cy="187.6845" fill="#ADD1B2" rx="11" ry="11" style="stroke:#181818;stroke-width:1.0;"/><path d="M177.4688,193.3252 Q176.8906,193.622 176.25,193.7627 Q175.6094,193.9189 174.9063,193.9189 Q172.4063,193.9189 171.0781,192.2783 Q169.7656,190.622 169.7656,187.497 Q169.7656,184.372 171.0781,182.7158 Q172.4063,181.0595 174.9063,181.0595 Q175.6094,181.0595 176.25,181.2158 Q176.9063,181.372 177.4688,181.6689 L177.4688,184.3877 Q176.8438,183.8095 176.25,183.5439 Q175.6563,183.2627 175.0313,183.2627 Q173.6875,183.2627 173,184.3408 Q172.3125,185.4033 172.3125,187.497 Q172.3125,189.5908 173,190.6689 Q173.6875,191.7314 175.0313,191.7314 Q175.6563,191.7314 176.25,191.4658 Q176.8438,191.1845 177.4688,190.6064 L177.4688,193.3252 Z " fill="#000000"/><text fill="#D9B8FF" font-family="Helvetica" font-size="17" lengthAdjust="spacing" textLength="158" x="193.5" y="193.5698">microsoft_resource</text></g><!--class resource--><g id="elem_resource"><rect codeLine="32" fill="#3D176E" height="39.7891" id="resource" rx="2.5" ry="2.5" style="stroke:#000D19;stroke-width:0.5;" width="113" x="105" y="7"/><ellipse cx="120" cy="26.8945" fill="#ADD1B2" rx="11" ry="11" style="stroke:#181818;stroke-width:1.0;"/><path d="M122.9688,32.5352 Q122.3906,32.832 121.75,32.9727 Q121.1094,33.1289 120.4063,33.1289 Q117.9063,33.1289 116.5781,31.4883 Q115.2656,29.832 115.2656,26.707 Q115.2656,23.582 116.5781,21.9258 Q117.9063,20.2695 120.4063,20.2695 Q121.1094,20.2695 121.75,20.4258 Q122.4063,20.582 122.9688,20.8789 L122.9688,23.5977 Q122.3438,23.0195 121.75,22.7539 Q121.1563,22.4727 120.5313,22.4727 Q119.1875,22.4727 118.5,23.5508 Q117.8125,24.6133 117.8125,26.707 Q117.8125,28.8008 118.5,29.8789 Q119.1875,30.9414 120.5313,30.9414 Q121.1563,30.9414 121.75,30.6758 Q122.3438,30.3945 122.9688,29.8164 L122.9688,32.5352 Z " fill="#000000"/><text fill="#D9B8FF" font-family="Helvetica" font-size="17" lengthAdjust="spacing" textLength="71" x="139" y="32.7798">resource</text></g><!--reverse link database to azure_cosmos_db_account--><g id="link_database_azure_cosmos_db_account"><path codeLine="35" d="M86.3921,223.2441 C104.8421,253.7641 131.4,297.69 149.88,328.25 " fill="none" id="database-backto-azure_cosmos_db_account" style="stroke:#FFAF37;stroke-width:2.0;"/><polygon fill="none" points="77.08,207.84,81.2574,226.3481,91.5268,220.14,77.08,207.84" style="stroke:#FFAF37;stroke-width:2.0;"/></g><!--reverse link microsoft_resource to azure_cosmos_db_account--><g id="link_microsoft_resource_azure_cosmos_db_account"><path codeLine="36" d="M238.225,223.1567 C219.385,253.6767 192.23,297.69 173.36,328.25 " fill="none" id="microsoft_resource-backto-azure_cosmos_db_account" style="stroke:#FFAF37;stroke-width:2.0;"/><polygon fill="none" points="247.68,207.84,233.1194,220.0051,243.3306,226.3084,247.68,207.84" style="stroke:#FFAF37;stroke-width:2.0;"/></g><!--reverse link resource to database--><g id="link_resource_database"><path codeLine="37" d="M140.6079,62.4541 C122.1579,92.9741 95.6,136.9 77.12,167.46 " fill="none" id="resource-backto-database" style="stroke:#FFAF37;stroke-width:2.0;"/><polygon fill="none" points="149.92,47.05,135.4732,59.35,145.7426,65.5581,149.92,47.05" style="stroke:#FFAF37;stroke-width:2.0;"/></g><!--reverse link resource to microsoft_resource--><g id="link_resource_microsoft_resource"><path codeLine="38" d="M182.775,62.3667 C201.615,92.8867 228.77,136.9 247.64,167.46 " fill="none" id="resource-backto-microsoft_resource" style="stroke:#FFAF37;stroke-width:2.0;"/><polygon fill="none" points="173.32,47.05,177.6694,65.5184,187.8806,59.2151,173.32,47.05" style="stroke:#FFAF37;stroke-width:2.0;"/></g><!--SRC=[XP1BRm8n38Jl-oiYSKQ2eXQGUccHglQ2gjBxofiu4B69aPqjWhR_lL0U2hiyhZEVFMFFd465VX5NogCla2MJkGiBOF3gYPcM8og9LSjQiBr-tNoX46y2O_2eNh7ymkWqr8dFcTFpW2BgBh6UGS-dJ5Kmk_MH8SZ6mX0JQbI2o5ECx8egObB638k1jNMolhJLCzt-0pOmOeEyHpgTZkaEwyZDgAjt7uc9MwFgfayRKyH6pKR4FtMrvPP8IZOEFVWNExw3CIvCrNsYVUmwSK0-qISpCBJSqXPAIMCa8YF5rG97ZQjmE32sVnP-kmHdUliw1UkACTSadYGtHGvQRzYelhFiTuyOY520OAfvfvc4RCmPXIhM9-wfTfn__6ctsvSIipChhm_Ki4DCNM_kpVu0]--></g></svg>

<svg xmlns="http://www.w3.org/2000/svg" width="366" height="374" viewBox="0 0 366 374"><rect width="261" height="39.789" x="31" y="328.58" fill="#3D176E" rx="2.5" ry="2.5" style="stroke:#000d19;stroke-width:.5"/><circle cx="46" cy="348.474" r="11" fill="#ADD1B2" style="stroke:#181818;stroke-width:1"/><path d="M48.969 354.115q-.578.297-1.219.438-.64.156-1.344.156-2.5 0-3.828-1.64-1.312-1.657-1.312-4.782t1.312-4.781q1.328-1.656 3.828-1.656.703 0 1.344.156.656.156 1.219.453v2.719q-.625-.579-1.219-.844-.594-.281-1.219-.281-1.343 0-2.031 1.078-.687 1.062-.687 3.156t.687 3.172q.688 1.062 2.031 1.062.625 0 1.219-.265.594-.281 1.219-.86z"/><text x="65" y="354.36" fill="#D9B8FF" font-family="Helvetica" font-size="17" textLength="219">azure_cosmos_db_account</text><rect width="117" height="39.789" x="7" y="167.79" fill="#3D176E" rx="2.5" ry="2.5" style="stroke:#000d19;stroke-width:.5"/><circle cx="22" cy="187.685" r="11" fill="#ADD1B2" style="stroke:#181818;stroke-width:1"/><path d="M24.969 193.325q-.578.297-1.219.438-.64.156-1.344.156-2.5 0-3.828-1.64-1.312-1.657-1.312-4.782t1.312-4.781q1.328-1.656 3.828-1.656.703 0 1.344.156.656.156 1.219.453v2.719q-.625-.578-1.219-.844-.594-.281-1.219-.281-1.343 0-2.031 1.078-.687 1.062-.687 3.156t.687 3.172q.688 1.062 2.031 1.062.625 0 1.219-.265.594-.281 1.219-.86z"/><text x="41" y="193.57" fill="#D9B8FF" font-family="Helvetica" font-size="17" textLength="75">database</text><rect width="200" height="39.789" x="159.5" y="167.79" fill="#3D176E" rx="2.5" ry="2.5" style="stroke:#000d19;stroke-width:.5"/><circle cx="174.5" cy="187.685" r="11" fill="#ADD1B2" style="stroke:#181818;stroke-width:1"/><path d="M177.469 193.325q-.578.297-1.219.438-.64.156-1.344.156-2.5 0-3.828-1.64-1.312-1.657-1.312-4.782t1.312-4.781q1.328-1.656 3.828-1.656.703 0 1.344.156.656.156 1.219.453v2.719q-.625-.578-1.219-.844-.594-.281-1.219-.281-1.344 0-2.031 1.078-.687 1.062-.687 3.156t.687 3.172q.688 1.062 2.031 1.062.625 0 1.219-.265.594-.281 1.219-.86z"/><text x="193.5" y="193.57" fill="#D9B8FF" font-family="Helvetica" font-size="17" textLength="158">microsoft_resource</text><rect width="113" height="39.789" x="105" y="7" fill="#3D176E" rx="2.5" ry="2.5" style="stroke:#000d19;stroke-width:.5"/><circle cx="120" cy="26.895" r="11" fill="#ADD1B2" style="stroke:#181818;stroke-width:1"/><path d="M122.969 32.535q-.578.297-1.219.438-.64.156-1.344.156-2.5 0-3.828-1.64-1.312-1.657-1.312-4.782t1.312-4.781q1.328-1.656 3.828-1.656.703 0 1.344.156.656.156 1.219.453v2.719q-.625-.578-1.219-.844-.594-.281-1.219-.281-1.344 0-2.031 1.078-.687 1.062-.687 3.156t.687 3.172q.688 1.062 2.031 1.062.625 0 1.219-.265.594-.281 1.219-.86z"/><text x="139" y="32.78" fill="#D9B8FF" font-family="Helvetica" font-size="17" textLength="71">resource</text><g fill="none"><path d="M86.392 223.244c18.45 30.52 45.008 74.446 63.488 105.006" style="stroke:#ffaf37;stroke-width:2"/><path d="m77.08 207.84 4.177 18.508 10.27-6.208z" style="stroke:#ffaf37;stroke-width:2"/></g><path fill="none" d="M238.225 223.157c-18.84 30.52-45.995 74.533-64.865 105.093m74.32-120.41-14.56 12.165 10.21 6.303z" style="stroke:#ffaf37;stroke-width:2"/><g fill="none"><path d="M140.608 62.454C122.158 92.974 95.6 136.9 77.12 167.46" style="stroke:#ffaf37;stroke-width:2"/><path d="m149.92 47.05-14.447 12.3 10.27 6.208z" style="stroke:#ffaf37;stroke-width:2"/></g><path fill="none" d="M182.775 62.367c18.84 30.52 45.995 74.533 64.865 105.093M173.32 47.05l4.35 18.468 10.21-6.303z" style="stroke:#ffaf37;stroke-width:2"/></svg>
